X: 28509
T: Munster Buttermilk
R: jig
M: 6/8
K: Dmajor
A|:def edB|BAF FEF|AFD DFA|BAF EFA|
def edB|BAF FEF|AFD DEF|1 EDD DFA:|2 EDD D2B||
|:AFA d2e|f2f fed|g2e edB|def edB|
AFA d2e|f2f fed|edB Adf|1 edd d2A:|2 edd d3||

